appearance/.icons/Tela-black/scalable/apps/org.kde.neochat.svg

<svg width="64" height="64" version="1" xmlns="http://www.w3.org/2000/svg">
 <path d="m56.321 11.786c1.4839 0 2.6786 1.1945 2.6786 2.6784v31.844c0 1.4838-1.1946 2.6917-2.6786 2.6917h-7.5536s-1.3393-0.01345-1.3393 1.3258v6.5102c0.0012 2.1299-1.376 3.4619-2.4772 2.3959l-6.7174-6.4003-3.1273-3.0222c-0.6731-0.85912-1.0913-0.80931-2.1163-0.80931h-19.312c-1.4839 0-2.6786-1.2079-2.6786-2.6917v-31.844c0-1.4838 1.1946-2.6784 2.6786-2.6784z" fill="#22759b" stroke-width=".96429"/>
 <path d="m7.6786 6c-1.4839 0-2.6786 1.1945-2.6786 2.6784v31.63c0 1.4838 1.1946 2.6917 2.6786 2.6917h7.5536s1.3393-0.01345 1.3393 1.3258v6.5102c-0.0012 2.1299 1.376 3.4619 2.4772 2.3959l6.7174-6.4003 3.1273-3.0222c0.6731-0.85912 1.0913-0.80931 2.1163-0.80931h19.312c1.4839 0 2.6786-1.2079 2.6786-2.6917v-31.63c0-1.4838-1.1946-2.6784-2.6786-2.6784z" fill="#38e0e4" stroke-width=".96429"/>
 <rect x="11" y="15" width="36" height="4" rx="2" ry="2" fill="#ffffff" fill-rule="evenodd" style="paint-order:stroke fill markers"/>
 <rect x="11" y="23" width="31" height="4" rx="2" ry="2" fill="#ffffff" fill-rule="evenodd" style="paint-order:stroke fill markers"/>
 <rect x="11" y="31" width="26" height="4" rx="2" ry="2" fill="#ffffff" fill-rule="evenodd" style="paint-order:stroke fill markers"/>
</svg>

<svg xmlns="http://www.w3.org/2000/svg" width="64" height="64" version="1"><path fill="#22759b" d="M56.321 11.786A2.673 2.673 0 0 1 59 14.464v31.844A2.684 2.684 0 0 1 56.32 49h-7.554s-1.339-.013-1.339 1.326v6.51c.001 2.13-1.376 3.462-2.477 2.396l-6.718-6.4-3.127-3.023c-.672-.859-1.09-.809-2.115-.809H13.678a2.684 2.684 0 0 1-2.679-2.692V14.464a2.673 2.673 0 0 1 2.679-2.678z"/><path fill="#38e0e4" d="M7.679 6A2.673 2.673 0 0 0 5 8.678v31.63A2.684 2.684 0 0 0 7.679 43h7.553s1.34-.013 1.34 1.326v6.51c-.002 2.13 1.376 3.462 2.477 2.396l6.717-6.4 3.127-3.023c.673-.859 1.092-.809 2.117-.809h19.312A2.684 2.684 0 0 0 53 40.308V8.678A2.673 2.673 0 0 0 50.322 6z"/><rect width="36" height="4" x="11" y="15" fill="#fff" fill-rule="evenodd" rx="2" ry="2" style="paint-order:stroke fill markers"/><rect width="31" height="4" x="11" y="23" fill="#fff" fill-rule="evenodd" rx="2" ry="2" style="paint-order:stroke fill markers"/><rect width="26" height="4" x="11" y="31" fill="#fff" fill-rule="evenodd" rx="2" ry="2" style="paint-order:stroke fill markers"/></svg>
